icons/diff-removed-24.svg

<svg width="24" height="24" viewBox="0 0 24 24">
  <path
    d="M7.3125 11.25C6.89829 11.25 6.5625 11.5858 6.5625 12C6.5625 12.4142 6.89829 12.75 7.3125 12.75H17.25C17.6642 12.75 18 12.4142 18 12C18 11.5858 17.6642 11.25 17.25 11.25H7.3125Z" />
  <path
    d="M3.75 2C2.7835 2 2 2.7835 2 3.75V20.25C2 21.2165 2.7835 22 3.75 22H20.25C21.2165 22 22 21.2165 22 20.25V3.75C22 2.7835 21.2165 2 20.25 2H3.75ZM3.5 3.75C3.5 3.61193 3.61193 3.5 3.75 3.5H20.25C20.3881 3.5 20.5 3.61193 20.5 3.75V20.25C20.5 20.3881 20.3881 20.5 20.25 20.5H3.75C3.61193 20.5 3.5 20.3881 3.5 20.25V3.75Z" />
</svg>

<svg xmlns="http://www.w3.org/2000/svg" width="24" height="24" viewBox="0 0 24 24"><path d="M7.313 11.25a.75.75 0 0 0 0 1.5h9.937a.75.75 0 0 0 0-1.5H7.312Z"/><path d="M3.75 2A1.75 1.75 0 0 0 2 3.75v16.5c0 .966.784 1.75 1.75 1.75h16.5A1.75 1.75 0 0 0 22 20.25V3.75A1.75 1.75 0 0 0 20.25 2H3.75ZM3.5 3.75a.25.25 0 0 1 .25-.25h16.5a.25.25 0 0 1 .25.25v16.5a.25.25 0 0 1-.25.25H3.75a.25.25 0 0 1-.25-.25V3.75Z"/></svg>
